SVG_Azure_Grouped/Compute/Virtual Machine Auto-Shutdown.svg

<?xml version="1.0" encoding="UTF-8" standalone="no"?>
<!-- Generated by Microsoft Visio, SVG Export Virtual Machine Auto-Shutdown.svg Page-1 -->

<svg
   xmlns:dc="http://purl.org/dc/elements/1.1/"
   xmlns:cc="http://creativecommons.org/ns#"
   xmlns:rdf="http://www.w3.org/1999/02/22-rdf-syntax-ns#"
   xmlns:svg="http://www.w3.org/2000/svg"
   xmlns="http://www.w3.org/2000/svg"
   xmlns:sodipodi="http://sodipodi.sourceforge.net/DTD/sodipodi-0.dtd"
   xmlns:inkscape="http://www.inkscape.org/namespaces/inkscape"
   width="0.80234003in"
   height="0.78750128in"
   viewBox="0 0 57.768465 56.700402"
   xml:space="preserve"
   class="st6"
   version="1.1"
   id="svg72"
   sodipodi:docname="Virtual Machine Auto-Shutdown.svg"
   style="font-size:12px;overflow:visible;color-interpolation-filters:sRGB;fill:none;fill-rule:evenodd;stroke-linecap:square;stroke-miterlimit:3"
   inkscape:version="0.92.5 (2060ec1f9f, 2020-04-08)"><metadata
   id="metadata76"><rdf:RDF><cc:Work
       rdf:about=""><dc:format>image/svg+xml</dc:format><dc:type
         rdf:resource="http://purl.org/dc/dcmitype/StillImage" /></cc:Work></rdf:RDF></metadata><sodipodi:namedview
   pagecolor="#ffffff"
   bordercolor="#666666"
   borderopacity="1"
   objecttolerance="10"
   gridtolerance="10"
   guidetolerance="10"
   inkscape:pageopacity="0"
   inkscape:pageshadow="2"
   inkscape:window-width="640"
   inkscape:window-height="480"
   id="namedview74"
   showgrid="false"
   inkscape:zoom="1.4193119"
   inkscape:cx="38.510762"
   inkscape:cy="37.794318"
   inkscape:window-x="0"
   inkscape:window-y="0"
   inkscape:window-maximized="0"
   inkscape:current-layer="svg72" />
	<style
   type="text/css"
   id="style2">
	<![CDATA[
		.st1 {fill:url(#grad0-6);stroke:none;stroke-linecap:butt;stroke-width:34}
		.st2 {fill:#ffffff;stroke:none;stroke-linecap:butt;stroke-width:34}
		.st3 {fill:#7a7a7a;stroke:none;stroke-linecap:butt;stroke-width:34}
		.st4 {fill:url(#grad7-18);stroke:none;stroke-linecap:butt;stroke-width:34}
		.st5 {fill:#86d633;stroke:none;stroke-linecap:butt;stroke-width:34}
		.st6 {fill:none;fill-rule:evenodd;font-size:12px;overflow:visible;stroke-linecap:square;stroke-miterlimit:3}
	]]>
	</style>

	<defs
   id="Patterns_And_Gradients">
		<linearGradient
   id="grad0-6"
   x1="-3.5119206e-15"
   y1="73.572275"
   x2="52.584994"
   y2="73.572275"
   gradientTransform="scale(1.0116156,0.98851777)"
   gradientUnits="userSpaceOnUse">
			<stop
   offset="0.185"
   stop-color="#5ea0ef"
   stop-opacity="1"
   id="stop4" />
			<stop
   offset="0.555"
   stop-color="#5c9fee"
   stop-opacity="1"
   id="stop6" />
			<stop
   offset="0.69"
   stop-color="#559ced"
   stop-opacity="1"
   id="stop8" />
			<stop
   offset="0.785"
   stop-color="#4a97e9"
   stop-opacity="1"
   id="stop10" />
			<stop
   offset="0.86"
   stop-color="#3990e4"
   stop-opacity="1"
   id="stop12" />
			<stop
   offset="0.93"
   stop-color="#2387de"
   stop-opacity="1"
   id="stop14" />
			<stop
   offset="0.985"
   stop-color="#087bd6"
   stop-opacity="1"
   id="stop16" />
			<stop
   offset="1"
   stop-color="#0078d4"
   stop-opacity="1"
   id="stop18" />
		</linearGradient>
		<radialGradient
   id="grad7-18"
   cx="0"
   cy="118.70812"
   r="10.429038"
   gradientTransform="scale(1.0116154,0.98851797)"
   fx="0"
   fy="118.70812"
   gradientUnits="userSpaceOnUse">
			<stop
   offset="0"
   stop-color="#7f7f7f"
   stop-opacity="1"
   id="stop21" />
			<stop
   offset="1"
   stop-color="#5e5e5e"
   stop-opacity="1"
   id="stop23" />
		</radialGradient>
	</defs>
	<g
   id="g70"
   transform="translate(-34.002634,-33.999991)">
		<title
   id="title27">Page-1</title>
		<g
   id="group11118-1"
   transform="translate(35.0781,-34.0157)">
			<title
   id="title29">Virtual Machine Auto-Shutdown.11118</title>
			<g
   id="group11119-2">
				<title
   id="title31">MsPortalFx.base.images-55</title>
				<g
   id="shape11120-3"
   transform="translate(3.49717,-4.71181)">
					<title
   id="title33">Sheet.11120</title>
					<ellipse
   cx="26.5979"
   cy="98.718102"
   rx="26.5979"
   ry="25.990601"
   class="st1"
   id="ellipse35"
   style="fill:url(#grad0-6);stroke:none;stroke-width:34;stroke-linecap:butt" />
				</g>
				<g
   id="shape11121-7"
   transform="translate(7.03947,-8.07244)">
					<title
   id="title38">Sheet.11121</title>
					<ellipse
   cx="23.158701"
   cy="102.079"
   rx="23.158701"
   ry="22.6299"
   class="st2"
   id="ellipse40"
   style="fill:#ffffff;stroke:none;stroke-width:34;stroke-linecap:butt" />
				</g>
				<g
   id="shape11122-9"
   transform="translate(10.2885,-11.578)">
					<title
   id="title43">Sheet.11122</title>
					<path
   d="m 30.67,94.16 2.8,-2.74 0.91,0.88 -2.81,2.74 z m 4.93,10.77 h 3.97 v 1.25 H 35.6 Z m -5.11,11.85 0.9,-0.88 2.8,2.74 -0.9,0.88 z m -11.22,4.05 h 1.28 v 3.88 H 19.27 Z M 5.31,92.18 l 0.9,-0.89 2.81,2.74 -0.91,0.89 z m 0.19,26.57 2.8,-2.74 0.91,0.88 -2.81,2.74 z M 0,104.93 h 3.97 v 1.25 H 0 Z"
   class="st3"
   id="path45"
   inkscape:connector-curvature="0"
   style="fill:#7a7a7a;stroke:none;stroke-width:34;stroke-linecap:butt" />
				</g>
				<g
   id="shape11123-11"
   transform="translate(28.5705,-29.9276)">
					<title
   id="title48">Sheet.11123</title>
					<path
   d="m 0,123.12 a 1.62776,1.59059 -180 0 0 1.63,1.59 h 0.31 a 1.62776,1.59059 -180 0 0 1.63,-1.59 V 106.37 A 1.62776,1.59059 -180 0 0 1.94,104.78 H 1.63 A 1.62776,1.59059 -180 0 0 0,106.37 Z"
   class="st3"
   id="path50"
   inkscape:connector-curvature="0"
   style="fill:#7a7a7a;stroke:none;stroke-width:34;stroke-linecap:butt" />
				</g>
				<g
   id="shape11124-13"
   transform="rotate(135,22.513123,115.58749)">
					<title
   id="title53">Sheet.11124</title>
					<path
   d="m 0,123.12 a 1.62453,1.58744 -180 0 0 1.62,1.59 h 0.32 a 1.62453,1.58744 -180 0 0 1.62,-1.59 v -9.3 A 1.62453,1.58744 -180 0 0 1.94,112.23 H 1.62 A 1.62453,1.58744 -180 0 0 0,113.82 Z"
   class="st3"
   id="path55"
   inkscape:connector-curvature="0"
   style="fill:#7a7a7a;stroke:none;stroke-width:34;stroke-linecap:butt" />
				</g>
				<g
   id="shape11125-15"
   transform="translate(26.4464,-27.0646)">
					<title
   id="title58">Sheet.11125</title>
					<ellipse
   cx="3.76792"
   cy="121.027"
   rx="3.76792"
   ry="3.68189"
   class="st4"
   id="ellipse60"
   style="fill:url(#grad7-18);stroke:none;stroke-width:34;stroke-linecap:butt" />
				</g>
				<g
   id="shape11126-19">
					<title
   id="title63">Sheet.11126</title>
					<path
   d="m 24.83,68.48 a 26.7332,26.1228 -180 0 0 -8.63,47.89 l 0.89,-2.28 a 0.518936,0.507087 0 0 1 0.886381,-0.14488 L 24.91,122.16 a 0.518936,0.507087 0 0 1 -0.32232,0.8252 L 13.81,124.71 a 0.522159,0.510236 0 0 1 -0.570507,-0.68031 L 14.53,120.65 A 31.3263,30.611 0 0 1 0,102.51 27.2747,26.652 0 0 1 24.83,68.48 Z"
   class="st5"
   id="path65"
   inkscape:connector-curvature="0"
   style="fill:#86d633;stroke:none;stroke-width:34;stroke-linecap:butt" />
				</g>
			</g>
		</g>
	</g>
</svg>

<?xml version="1.0" encoding="UTF-8" standalone="no"?>
<!DOCTYPE svg PUBLIC "-//W3C//DTD SVG 1.1//EN" "http://www.w3.org/Graphics/SVG/1.1/DTD/svg11.dtd">
<!-- Generated by Microsoft Visio, SVG Export Virtual Machine Auto-Shutdown.svg Page-1 -->
<svg xmlns="http://www.w3.org/2000/svg" xmlns:xlink="http://www.w3.org/1999/xlink" xmlns:ev="http://www.w3.org/2001/xml-events"
		width="1.74682in" height="1.73206in" viewBox="0 0 125.771 124.709" xml:space="preserve" color-interpolation-filters="sRGB"
		class="st6">
	<style type="text/css">
	<![CDATA[
		.st1 {fill:url(#grad0-6);stroke:none;stroke-linecap:butt;stroke-width:34}
		.st2 {fill:#ffffff;stroke:none;stroke-linecap:butt;stroke-width:34}
		.st3 {fill:#7a7a7a;stroke:none;stroke-linecap:butt;stroke-width:34}
		.st4 {fill:url(#grad7-18);stroke:none;stroke-linecap:butt;stroke-width:34}
		.st5 {fill:#86d633;stroke:none;stroke-linecap:butt;stroke-width:34}
		.st6 {fill:none;fill-rule:evenodd;font-size:12px;overflow:visible;stroke-linecap:square;stroke-miterlimit:3}
	]]>
	</style>

	<defs id="Patterns_And_Gradients">
		<linearGradient id="grad0-6" x1="0" y1="0" x2="1" y2="0" gradientTransform="rotate(0 0.5 0.5)">
			<stop offset="0.185" stop-color="#5ea0ef" stop-opacity="1"/>
			<stop offset="0.555" stop-color="#5c9fee" stop-opacity="1"/>
			<stop offset="0.69" stop-color="#559ced" stop-opacity="1"/>
			<stop offset="0.785" stop-color="#4a97e9" stop-opacity="1"/>
			<stop offset="0.86" stop-color="#3990e4" stop-opacity="1"/>
			<stop offset="0.93" stop-color="#2387de" stop-opacity="1"/>
			<stop offset="0.985" stop-color="#087bd6" stop-opacity="1"/>
			<stop offset="1" stop-color="#0078d4" stop-opacity="1"/>
		</linearGradient>
		<radialGradient id="grad7-18" cx="0" cy="0" r="1.4">
			<stop offset="0" stop-color="#7f7f7f" stop-opacity="1"/>
			<stop offset="1" stop-color="#5e5e5e" stop-opacity="1"/>
		</radialGradient>
	</defs>
	<g>
		<title>Page-1</title>
		<g id="group10880-1" transform="translate(35.0781,-34.0157)">
			<title>Virtual Machine Auto-Shutdown.10880</title>
			<g id="group10881-2">
				<title>MsPortalFx.base.images-55</title>
				<g id="shape10882-3" transform="translate(3.49717,-4.71181)">
					<title>Sheet.10882</title>
					<ellipse cx="26.5979" cy="98.7181" rx="26.5979" ry="25.9906" class="st1"/>
				</g>
				<g id="shape10883-7" transform="translate(7.03947,-8.07244)">
					<title>Sheet.10883</title>
					<ellipse cx="23.1587" cy="102.079" rx="23.1587" ry="22.6299" class="st2"/>
				</g>
				<g id="shape10884-9" transform="translate(10.2885,-11.578)">
					<title>Sheet.10884</title>
					<path d="M30.67 94.16 L33.47 91.42 L34.38 92.3 L31.57 95.04 L30.67 94.16 ZM35.6 104.93 L39.57 104.93 L39.57 106.18
								 L35.6 106.18 L35.6 104.93 ZM30.49 116.78 L31.39 115.9 L34.19 118.64 L33.29 119.52 L30.49 116.78
								 ZM19.27 120.83 L20.55 120.83 L20.55 124.71 L19.27 124.71 L19.27 120.83 ZM5.31 92.18 L6.21 91.29
								 L9.02 94.03 L8.11 94.92 L5.31 92.18 ZM5.5 118.75 L8.3 116.01 L9.21 116.89 L6.4 119.63 L5.5 118.75
								 ZM0 104.93 L3.97 104.93 L3.97 106.18 L0 106.18 L0 104.93 Z" class="st3"/>
				</g>
				<g id="shape10885-11" transform="translate(28.5705,-29.9276)">
					<title>Sheet.10885</title>
					<path d="M0 123.12 A1.62776 1.59059 -180 0 0 1.63 124.71 L1.94 124.71 A1.62776 1.59059 -180 0 0 3.57 123.12 L3.57
								 106.37 A1.62776 1.59059 -180 0 0 1.94 104.78 L1.63 104.78 A1.62776 1.59059 -180 0 0 -0 106.37 L0
								 123.12 Z" class="st3"/>
				</g>
				<g id="shape10886-13" transform="translate(120.165,181.401) rotate(135)">
					<title>Sheet.10886</title>
					<path d="M0 123.12 A1.62453 1.58744 -180 0 0 1.62 124.71 L1.94 124.71 A1.62453 1.58744 -180 0 0 3.56 123.12 L3.56
								 113.82 A1.62453 1.58744 -180 0 0 1.94 112.23 L1.62 112.23 A1.62453 1.58744 -180 0 0 0 113.82 L0
								 123.12 Z" class="st3"/>
				</g>
				<g id="shape10887-15" transform="translate(26.4464,-27.0646)">
					<title>Sheet.10887</title>
					<ellipse cx="3.76792" cy="121.027" rx="3.76792" ry="3.68189" class="st4"/>
				</g>
				<g id="shape10888-19">
					<title>Sheet.10888</title>
					<path d="M24.83 68.48 A26.7332 26.1228 -180 0 0 16.2 116.37 L17.09 114.09 a0.518936 0.507087 0 0 1 0.886381 -0.144882
								 L24.91 122.16 a0.518936 0.507087 0 0 1 -0.32232 0.825197 L13.81 124.71 a0.522159 0.510236 0 0 1
								 -0.570507 -0.680315 L14.53 120.65 A31.3263 30.611 0 0 1 0 102.51 A27.2747 26.652 0 0 1 24.83 68.48
								 Z" class="st5"/>
				</g>
			</g>
		</g>
	</g>
</svg>
